!!!COM:	la Rue, Pierre de
!!!CDT:	~1452///-1518/11/20
!!!OPR:	Missa Almana
!!!ONM:	1
!!!OTL:	Kyrie
!!!AGN:	Mass; Kyrie
!!!SCT:	Rue1002a
!!!SCA:	Rue1002a
!!!voices:	4
!!!voices-OPR:	4
**kern	**kern	**kern	**kern
*staff4	*staff3	*staff2	*staff1
*Ivox	*Ivox	*Ivox	*Ivox
*I"Bassus	*I"Tenor	*I"Contra	*I"Discantus
*I'B	*I'T	*I'C	*I'D
*>[A,B,C,D]	*>[A,B,C,D]	*>[A,B,C,D]	*>[A,B,C,D]
*>A	*>A	*>A	*>A
*clefF4	*clefGv2	*clefGv2	*clefG2
*k[b-]	*k[b-]	*k[b-]	*k[b-]
*M2/1	*M2/1	*M2/1	*M2/1
*met(C|)	*met(C|)	*met(C|)	*met(C|)
!!incipit: 5
!!section: Kyrie I
!!!OMD: Kyrie I
=1-	=1-	=1-	=1-
0r	0r	0F	0r
=2	=2	=2	=2
0r	0r	1B-	0r
.	.	1B-	.
=3	=3	=3	=3
0r	0r	1A	0c
.	.	2A/	.
.	.	4B-\	.
.	.	4c\	.
=4	=4	=4	=4
0r	0r	1.d	1f
.	.	.	1f
.	.	4c\	.
.	.	4B-\	.
=5	=5	=5	=5
0r	0C	4c\	1e
.	.	4A/	.
.	.	2.c\	.
.	.	.	2e/
.	.	4B-\	.
.	.	4A/	4f/
.	.	4G/	4g/
=6	=6	=6	=6
0r	1F	2F/	1.a
.	.	2c\	.
.	1F	2A/	.
.	.	[2c\	2f/
=7	=7	=7	=7
0C	1E	2c\]	2a/
.	.	4B-\	2.g/
.	.	4A/	.
.	1E	1G	.
.	.	.	4f/
.	.	.	4e/
.	.	.	4d/
=8	=8	=8	=8
1F	0A	2r	2.c/
.	.	1c	.
.	.	.	4B-/
1F	.	.	4A/
.	.	.	4G/
.	.	2A/	[2c/
=9	=9	=9	=9
1E	[0G	2.c\	2c/]
.	.	.	2g/
.	.	4B-\	.
1C	.	4c\	2e/
.	.	4d\	.
.	.	[2e-i\	[2g/
=10	=10	=10	=10
0GG	0G]	4e-\]	2g/]
.	.	4d\	.
.	.	1c	4f/
.	.	.	4e/
.	.	.	1d
.	.	2Bni\	.
=11	=11	=11	=11
1C	1r	2c\	0c
.	.	2A/	.
2AA/	1A	[1c	.
[2C/	.	.	.
=12	=12	=12	=12
2C/]	2G/	2c\]	0r
2G\	2E/	4B-\	.
.	.	4A/	.
2E\	2.G/	4B-\	.
.	.	4A/	.
[2G\	.	4G/	.
.	4A/	4F/	.
=13	=13	=13	=13
2G\]	2B-\	1E	1g
4F\	1c	.	.
4E\	.	.	.
1D	.	1F	1f
.	2Bni\	.	.
=14	=14	=14	=14
2.C/	[0c	2G/	2.e/
.	.	2A/	.
4D\	.	.	4f/
2E\	.	2G/	2g/
[2F\	.	2F/	[2a/
=15	=15	=15	=15
2F\]	0c]	1c	2a/]
2E\	.	.	2g/
1F	.	2.A/	2a/
.	.	.	[2cc\
.	.	4B-\	.
=16	=16	=16	=16
2r	1A	1c	4cc\]
.	.	.	4b-\
2F\	.	.	1a
2D\	1B-	1d	.
2E\	.	.	2g/
=17	=17	=17	=17
1F	2.A/	2.c\	1a
.	4B-\	8B-/L	.
.	.	8A/J	.
2E\	2c\	2G/	2r
2D\	[2d\	2A/	2f/
=18	=18	=18	=18
1E	2d\]	2G/	2.g/
.	2c\	2E/	.
.	.	.	4a/
1D	1d	[1F	2b-\
.	.	.	[2a/
=19	=19	=19	=19
2r	1A	2F/]	2a/]
2D\	.	4E/	4g/
.	.	4D/	4f/
1E-	1r	2C/	1g
.	.	[2c\	.
=20	=20	=20	=20
1C	2r	4c\]	2e/
.	.	4B-\	.
.	2A/	2A/	2c/
1BB-	1B-	2G/	1d
.	.	2F/	.
=21	=21	=21	=21
2r	1G	1E	2r
2C/	.	.	2e/
2D\	1F	2D/	2f/
2BB-/	.	[2d\	2d/
=22	=22	=22	=22
2C/	2r	2d\]	1g
2E-\	2G/	1c	.
1D	2A/	.	2r
.	2F/	2B-\	2d/
=23	=23	=23	=23
2r	2G/	2c\	2e/
2BB-/	2B-\	2d\	1g
2C/	1A	2c\	.
2D\	.	2A/	2f/
=24	=24	=24	=24
2E-i\	2r	2G/	2g/
2D\	2F/	2F/	2a/
2E-i\	2G/	2B-\	2g/
2C/	2A/	2c\	2e/
=25	=25	=25	=25
2BB-/	2B-\	2F/	2d/
2C/	2A/	2E/	2c/
2D\	2B-\	2F/	2f/
2BB-/	2G/	2B-\	[2g/
=26	=26	=26	=26
0C	2A/	2A/	4g/]
.	.	.	4f/
.	2F/	2B-\	1f
.	1G	[1cl	.
.	.	.	2e/
=27	=27	=27	=27
0FFl	0Fl	0c]	0fl
!!LO:LB:i:g=z
=28||	=28||	=28||	=28||
*>B	*>B	*>B	*>B
*clefF4	*clefGv2	*clefGv2	*clefG2
*k[b-]	*k[b-]	*k[b-]	*k[b-]
*M2/1	*M2/1	*M2/1	*M2/1
*met(C|)	*met(C|)	*met(C|)	*met(C|)
!!section: Christe I
!!!OMD: Christe I
0r	0r	0F	[0f
=29	=29	=29	=29
0BB-	0r	1.B-	0f]
.	.	4A/	.
.	.	4G/	.
=30	=30	=30	=30
1.E-	0r	0G	1.g
4D\	.	.	4f/
4C/	.	.	4e/
=31	=31	=31	=31
1.C	[0c	1G	[0e
.	.	[1E	.
4BB-/	.	.	.
4AA/	.	.	.
=32	=32	=32	=32
1.AA	0c]	2E/]	0e]
.	.	4D/	.
.	.	4C/	.
.	.	1C	.
4GG/	.	.	.
4FF/	.	.	.
=33	=33	=33	=33
1FF	1c	1A	1.f
[1BB-	[1d	1F	.
.	.	.	4e/
.	.	.	4d/
=34	=34	=34	=34
2BB-/]	2d\]	1.B-	1d
4AA/	4c\	.	.
4GG/	4B-\	.	.
[1GG	[1B-	.	[1b-
.	.	4A/	.
.	.	4G/	.
=35	=35	=35	=35
1GG]	1B-]	0G	2b-\]
.	.	.	4a/
.	.	.	4g/
1G	1B-	.	[1g
=36	=36	=36	=36
1C	1.c	0r	1g]
[1F	.	.	[1a
.	4B-\	.	.
.	4A/	.	.
=37	=37	=37	=37
2F\]	0A	1.d	2a/]
4E\	.	.	4g/
4D\	.	.	4f/
[1D	.	.	1f
.	.	4c\	.
.	.	4B-\	.
=38	=38	=38	=38
2D\]	1.d	0B-	2r
4C/	.	.	1f
4BB-/	.	.	.
[1BB-	.	.	.
.	4c\	.	4e/
.	4B-\	.	4d/
=39	=39	=39	=39
2BB-/]	1.B-	[0d	2f/
4AA/	.	.	2g/
4GG/	.	.	.
[1GG	.	.	[1b-
.	4A/	.	.
.	4G/	.	.
=40	=40	=40	=40
1GG]	0G	0d_	2b-\]
.	.	.	4a/
.	.	.	4g/
1GG	.	.	[1g
=41	=41	=41	=41
0D	0A	0d]	1g]
.	.	.	1f#i
=42	=42	=42	=42
2GG/	1G	2.B-\	2g/
2G\	.	.	2b-\
.	.	4A/	.
2A\	[1c	2F/	2a/
[2F\	.	2A/	[2cc\
=43	=43	=43	=43
2F\]	1c]	1G	4cc\]
.	.	.	4b-\
2E\	.	.	2g/
2F\	1A	[1F	2a/
[2D\	.	.	[2f/
=44	=44	=44	=44
4D\]	1B-	2F/]	4f/]
4C/	.	.	4e/
2BB-/	.	2G/	2d/
2AA/	1F	2A/	2c/
2BB-/	.	2D/	[2d/
=45	=45	=45	=45
0GG	[0B-	[0d	2d/]
.	.	.	1G
.	.	.	[2g/
=46	=46	=46	=46
1r	0B-]	0d]	2g/]
.	.	.	2f/
2r	.	.	2g/
[2GG/	.	.	[2b-\
=47	=47	=47	=47
2GG/]	0d	0D	2b-\]
2FF/	.	.	2a/
2GG/	.	.	2b-\
[2BB-/	.	.	2f/
=48	=48	=48	=48
2BB-/]	1c	0r	2g/
2AA/	.	.	2a/
2BB-/	2.B-\	.	2d/
[2E-\	.	.	[2g/
.	4A/	.	.
=49	=49	=49	=49
2E-\]	2B-\	1r	2g/]
4D\	1c	.	4f/
4C/	.	.	4e/
1D	.	1F	1f
.	2Bni\	.	.
=50	=50	=50	=50
1C	0c	2G/	1e
.	.	2.A/	.
2r	.	.	2r
.	.	4G/	.
2C/	.	[2c\	2e/
=51	=51	=51	=51
1D	1r	2c\]	1f
.	.	2B-\	.
1C	2r	2c\	1e
.	2c\	2A/	.
=52	=52	=52	=52
1BB-	1d	2B-\	1r
.	.	2G/	.
1C	1c	2A/	2r
.	.	2c\	2e/
=53	=53	=53	=53
0r	1d	1B-	2.f/
.	.	.	4g/
.	1c	1A	4a/
.	.	.	4b-\
.	.	.	2cc\
=54	=54	=54	=54
1r	1d	1B-	2.f/
.	.	.	4g/
2r	1c	2A/	4a/
.	.	.	4b-\
2C/	.	2G/	2cc\
=55	=55	=55	=55
1D	1F	4F/	4b-\
.	.	2A/	2a/
.	.	4B-\	8g/L
.	.	.	8f/J
1C	2r	4c\	1e
.	.	4B-\	.
.	[2c\	4A/	.
.	.	4G/	.
=56	=56	=56	=56
1D	2c\]	2.F/	1f
.	2B-\	.	.
.	.	4E/	.
1C	2.c\	2G/	2e/
.	.	[2c\	[2g/
.	4B-\	.	.
=57	=57	=57	=57
1D	2A/	2c\]	2g/]
.	2F/	2B-\	1f
1C	1G	1c	.
.	.	.	2e/
=58	=58	=58	=58
0FFl	0Fl	0cl	0fl
!!LO:LB:i:g=z
=59||	=59||	=59||	=59||
*>C	*>C	*>C	*>C
*clefF4	*clefGv2	*clefGv2	*clefG2
*k[b-]	*k[b-]	*k[b-]	*k[b-]
*M2/1	*M2/1	*M2/1	*M2/1
*met(C|)	*met(C|)	*met(C|)	*met(C|)
!!section: Christe II
!!!OMD: Christe II
0r	0F	2.A/	0r
.	.	4B-\	.
.	.	2c\	.
.	.	[2d\	.
=60	=60	=60	=60
1r	1E	2d\]	0r
.	.	2c\	.
[1BB-	2.D/	[1d	.
.	4E/	.	.
=61	=61	=61	=61
1BB-]	2F/	1d]	0r
.	1G	.	.
1AA	.	1c	.
.	2F/	.	.
=62	=62	=62	=62
1GG	2.G/	1B-	0r
.	4A/	.	.
[1D	2B-\	2.F/	.
.	[2A/	.	.
.	.	4G/	.
=63	=63	=63	=63
1D]	2A/]	2A/	0r
.	4G/	1B-	.
.	4F/	.	.
1C	1E	.	.
.	.	2A/	.
=64	=64	=64	=64
1BB-	1F	1.B-	0r
[1E-	2.G/	.	.
.	.	2A/	.
.	4A/	.	.
=65	=65	=65	=65
1E-]	2B-\	1G	0r
.	1c	.	.
1D	.	1F	.
.	2B-\	.	.
=66	=66	=66	=66
2.C/	0c	2.G/	0r
4D\	.	4F/	.
2E\	.	2G/	.
[2F\	.	[2A/	.
=67	=67	=67	=67
2F\]	1c	2A/]	0r
2E\	.	2G/	.
2F\	[1A	2A/	.
[2D\	.	[2F/	.
=68	=68	=68	=68
2D\]	1A]	2F/]	0r
2C/	.	2E/	.
2D\	[1F	2D/	.
[2BB-/	.	[2d\	.
=69	=69	=69	=69
2BB-/]	1F]	2d\]	0r
2AA/	.	2c\	.
2BB-/	1F	2d\	.
2D\	.	2B-\	.
=70	=70	=70	=70
2C/	[0E	1.c	0r
2AA/	.	.	.
[1C	.	.	.
.	.	2A/	.
=71	=71	=71	=71
2C/]	0E_	1A	0r
2AA/	.	.	.
1AA	.	2r	.
.	.	[2c\	.
=72	=72	=72	=72
2r	0E]	2c\]	0r
1C	.	4B-\	.
.	.	4A/	.
.	.	[1G	.
4BB-/	.	.	.
4AA/	.	.	.
=73	=73	=73	=73
0GG	2r	2G/]	0r
.	1G	2A/	.
.	.	[1B-	.
.	4F/	.	.
.	4E/	.	.
=74	=74	=74	=74
1BB-	0D	2B-\]	0r
.	.	4A/	.
.	.	4G/	.
1BB-	.	2F/	.
.	.	2G/	.
=75	=75	=75	=75
0AA	1F	0A	0r
.	1E	.	.
=76	=76	=76	=76
0r	1G	2r	0r
.	.	2.B-\	.
.	2r	.	.
.	.	4A/	.
.	[2F/	[2d\	.
=77	=77	=77	=77
0r	4F/]	2d\]	0r
.	4E/	.	.
.	1A	2c\	.
.	.	1B-	.
.	2G/	.	.
=78	=78	=78	=78
0AA	1F	0A	0r
.	1E	.	.
=79	=79	=79	=79
1BB-	2r	0r	0r
.	2G/	.	.
2AA/	2A/	.	.
[2D\	[2B-\	.	.
=80	=80	=80	=80
2D\]	2B-\]	0r	0r
2C/	1A	.	.
1BB-	.	.	.
.	2G/	.	.
=81	=81	=81	=81
0AA	0A	1.c	0r
.	.	2B-\	.
=82	=82	=82	=82
0C	0E	1A	0r
.	.	[1G	.
=83	=83	=83	=83
0BB-	0r	2G/]	0r
.	.	4F/	.
.	.	4E/	.
.	.	1D	.
=84	=84	=84	=84
0AA	0r	2E/	0r
.	.	2F/	.
.	.	2E/	.
.	.	[2A/	.
=85	=85	=85	=85
2AA/	0r	2A/]	0r
2BB-/	.	2G/	.
2AA/	.	1A	.
[2D\	.	.	.
=86	=86	=86	=86
2D\]	0r	2F/	0r
2C/	.	2G/	.
1D	.	2B-\	.
.	.	2A/	.
=87	=87	=87	=87
2BB-/	0r	2B-\	0r
2C/	.	1G	.
2E-\	.	.	.
2D\	.	2F/	.
=88	=88	=88	=88
2E-i\	1r	[0G	0r
1C	.	.	.
.	2r	.	.
2BB-/	2D/	.	.
=89	=89	=89	=89
2C/	2E-/	0G]	0r
2BB-/	2D/	.	.
2C/	2C/	.	.
2GG/	2BB-/	.	.
=90	=90	=90	=90
2C/	2E-i/	0G	0r
2BB-/	2D/	.	.
2C/	2E-i/	.	.
2BB-/	2D/	.	.
=91	=91	=91	=91
2.E-\	2C/	2.G/	0r
.	1E-i	.	.
4D\	.	8F/L	.
.	.	8G/J	.
2C/	.	2A/	.
2BB-/	[2D/	[2G/	.
=92	=92	=92	=92
2C/	2D/]	2G/]	0r
2FF/	1C	1F	.
1GG	.	.	.
.	2BB-/	2E/	.
=93	=93	=93	=93
0FFl	0Cl	0Fl	0r
!!LO:LB:i:g=z
=94||	=94||	=94||	=94||
*>D	*>D	*>D	*>D
*clefF4	*clefGv2	*clefGv2	*clefG2
*k[b-]	*k[b-]	*k[b-]	*k[b-]
*M2/1	*M2/1	*M2/1	*M2/1
*met(C|)	*met(C|)	*met(C|)	*met(C|)
!!section: Kyrie II
!!!OMD: Kyrie II
0BB-	2r	0r	0r
.	2F/	.	.
.	2G/	.	.
.	[2B-\	.	.
=95	=95	=95	=95
1C	2B-\]	2r	0r
.	2A/	2c\	.
1BB-	2.B-\	2d\	.
.	.	[2f\	.
.	4A/	.	.
=96	=96	=96	=96
1C	1G	2f\]	0r
.	.	2e\	.
1D	1F	2f\	.
.	.	2F/	.
=97	=97	=97	=97
2E\	1r	2G/	0r
1G	.	2B-\	.
.	1D	1A	.
2F\	.	.	.
=98	=98	=98	=98
2G\	2E/	1G	1r
2GG/	1G	.	.
1AA	.	1c	1a
.	2F#i/	.	.
=99	=99	=99	=99
1GG	0G	2.B-\	2b-\
.	.	.	1g
.	.	4A/	.
2r	.	2B-\	.
2C/	.	2c\	4f/
.	.	.	4e/
=100	=100	=100	=100
2BB-/	0r	2d\	2d/
2.C/	.	1c	2.e/
4D\	.	.	4f/
2E-i\	.	[2c\	[2g/
=101	=101	=101	=101
0C	[0G	2c\]	4g/]
.	.	.	4f/
.	.	2c\	4e/
.	.	.	4d/
.	.	1c	1e
=102	=102	=102	=102
0BB-	0G]	0d	1r
.	.	.	1b-
=103	=103	=103	=103
1AA	[0A	2.c\	2cc\
.	.	.	1a
.	.	4B-\	.
2r	.	2c\	.
2D\	.	2d\	4g/
.	.	.	4f/
=104	=104	=104	=104
2C/	0A]	2e\	2e/
2.D\	.	2.d\	2.f/
4E\	.	4c\	4g/
2F\	.	2A/	[2a/
=105	=105	=105	=105
0D	0A	0d	4a/]
.	.	.	4g/
.	.	.	4f/
.	.	.	4e/
.	.	.	1f
=106	=106	=106	=106
0r	0B-	1G	1r
.	.	2G/	1g
.	.	[2d\	.
=107	=107	=107	=107
0GG	0G	2d\]	2g/
.	.	2c\	1b-
.	.	2B-\	.
.	.	[2d\	4a/
.	.	.	4g/
=108	=108	=108	=108
1D	1A	2d\]	1f
.	.	2f\	.
2E\	1r	2e\	2g/
2F\	.	2c\	[2a/
=109	=109	=109	=109
1D	1A	1d	2a/]
.	.	.	2f/
2E\	1G	2B-\	2g/
[2C/	.	2c\	[2e/
=110	=110	=110	=110
2C/]	1A	2e\	2e/]
2D\	.	2d\	2f/
2E\	1G	2B-\	1g
[2C/	.	[2c\	.
=111	=111	=111	=111
2C/]	1A	2c\]	2e/
1D	.	2A/	2f/
.	1F	1B-	1d
2BB-/	.	.	.
=112	=112	=112	=112
2C/	2r	1A	2e/
2D\	2F/	.	1f
1BB-	1B-	1d	.
.	.	.	2d/
=113	=113	=113	=113
2C/	2A/	1r	2e/
2E\	1G	.	1c
1D	.	1d	.
.	2F/	.	2Bni/
=114	=114	=114	=114
1C	0G	1.e	1c
2r	.	.	2r
[2E\	.	4d\	[2g/
.	.	4c\	.
=115	=115	=115	=115
2E\]	1r	[0c	2g/]
4D\	.	.	4f/
4E\	.	.	4g/
2F\	2r	.	2a/
2E\	[2G/	.	2g/
=116	=116	=116	=116
0C	2G/]	0c]	2e/
.	4F/	.	2f/
.	4G/	.	.
.	2A/	.	2e/
.	2G/	.	[2g/
=117	=117	=117	=117
1C	2E/	[0cl	2g/]
.	2F/	.	4f/
.	.	.	4g/
1C	2E/	.	2a/
.	2C/	.	[2g/
=118	=118	=118	=118
0C	2E/	0c_	2g/]
.	2F/	.	1f
.	1G	.	.
.	.	.	2e/
=119	=119	=119	=119
0FFl	0Fl	0c]	0fl
==	==	==	==
*-	*-	*-	*-
!!!RDF**kern: l=long note in original notation
!!!RDF**kern: i=editorial accidental
!!!RDF**kern: V=start of tuplet marker
!!!RDF**kern: Z=end of tuplet marker
!!!ENC:	Chris Gage 11-01-2012
!!!END:	2012/11/17/
!!!EED:	Jesse Rodin
!!!EEV:	2012/12/15/
!!!ONB:	Translated from MusicXML and edited on 2012/12/15/ by Craig Sapp
!!muse2ps: T^@{OPR}^u^@{ONM}{. }@{OTL}^C^@{COM}^i2I150v85,85,85,150Q16c120
